X:199
T:Reel 199
M:4/4
K:Cmaj
L:1/8
 (3GAB |c>C (3CCC C>E (3EDE |A>D (3DDD A>D (3DED |E>C (3CCC E>C (3EDC |Addc BcAB|c>C (3CCC C>E (3CDE |D>D (3DDD A>D (3DDD |E>D (3DDD E>C (3DCD |E>C (3CCC C2:|c2| (3ccc c>B A>G (3EDC |Ddd^c dcAD|A>D (3DDD d>c (3BAB |AGBc AGED (3DDD |C>c (3cBc c>c (3cBc |GcBc  (3BBA GF|C2EC DCEDDD| (3EFG DB, C2:|
